X:8
T:Mariner's Departure, The
M:C|
L:1/8
R:Reel
B:WM Cahusac - Twenty Four Country Dances for the Year 1809, No. 8 (London)
N:"With proper Directions to each Dance as they are performed at
N:Court, Bath, and all Public Assemblies."
Z:Transcribed and edited by Flynn Titford-Mock, 2007
Z:abc's:AK/Fiddler's Companion
K:G
G2 DE G2e2|DBAG AFED|G2 DE G2e2|dBcA G4:||
D2 Bc d2g2|fafd cedc|B2 GA B2^c2|dfe^c d4|
G2 DE G2e2|DBAG AFED|G2 DE G2e2|dBcA G4||
